icons/svg/cart.svg

<svg width="24" height="24" viewBox="0 0 24 24" fill="none" xmlns="http://www.w3.org/2000/svg">
<circle cx="9.54902" cy="19.0488" r="1.70118" stroke="currentColor" stroke-width="1.5" stroke-linecap="round" stroke-linejoin="round"/>
<circle cx="16.9601" cy="19.0488" r="1.70118" stroke="currentColor" stroke-width="1.5" stroke-linecap="round" stroke-linejoin="round"/>
<path d="M5.60644 5.55459L7.61626 11.919C7.92503 12.8968 8.07941 13.3857 8.37533 13.7477C8.63661 14.0672 8.97485 14.3151 9.35827 14.468C9.79255 14.6412 10.3052 14.6412 11.3306 14.6412H15.1861C16.2115 14.6412 16.7241 14.6412 17.1584 14.468C17.5418 14.3151 17.8801 14.0672 18.1413 13.7477C18.4373 13.3857 18.5917 12.8968 18.9004 11.9191L19.3098 10.6227C19.3971 10.3461 19.4775 10.0917 19.55 9.85692L19.8814 8.80742C20.3902 7.19612 19.1872 5.55459 17.4974 5.55459H5.60644ZM5.60644 5.55459L5.59497 5.51827C5.52667 5.30196 5.49251 5.19381 5.45483 5.09839C5.04171 4.05219 4.06463 3.3361 2.94259 3.2572C2.84025 3.25 2.72683 3.25 2.5 3.25" stroke="currentColor" stroke-width="1.5" stroke-linecap="round" stroke-linejoin="round"/>
</svg>

<svg xmlns="http://www.w3.org/2000/svg" width="24" height="24" fill="none" viewBox="0 0 24 24"><circle cx="9.549" cy="19.049" r="1.701" stroke="currentColor" stroke-linecap="round" stroke-linejoin="round" stroke-width="1.5"/><circle cx="16.96" cy="19.049" r="1.701" stroke="currentColor" stroke-linecap="round" stroke-linejoin="round" stroke-width="1.5"/><path stroke="currentColor" stroke-linecap="round" stroke-linejoin="round" stroke-width="1.5" d="m5.606 5.555 2.01 6.364c.309.978.463 1.467.76 1.829.26.32.599.567.982.72.435.173.947.173 1.973.173h3.855c1.026 0 1.538 0 1.972-.173.384-.153.722-.4.983-.72.296-.362.45-.851.76-1.829l.409-1.296.24-.766.331-1.05a2.5 2.5 0 0 0-2.384-3.252zm0 0-.011-.037a7 7 0 0 0-.14-.42 2.92 2.92 0 0 0-2.512-1.84C2.84 3.25 2.727 3.25 2.5 3.25"/></svg>
